X:85
T: Három csillag van az égen egy sorba...
M: 4/4
L: 1/4
K: F
g/f/e/d/ f g | a f d2 | 
d/e/ f B/c/c/c/ | c<B B2 | 
ddgf | Bc | dB G2 | 
G/A/B/B/ c/d/c/c/ | G<G G2 | 

